png/certificate.svg

<?xml version="1.0" encoding="utf-8"?><!-- Uploaded to: SVG Repo, www.svgrepo.com, Generator: SVG Repo Mixer Tools -->
<svg width="800px" height="800px" viewBox="0 0 32 32" fill="none" xmlns="http://www.w3.org/2000/svg">
<path d="M23 2H9C7.34315 2 6 3.34315 6 5V27C6 28.6569 7.34315 30 9 30H23C24.6569 30 26 28.6569 26 27V5C26 3.34315 24.6569 2 23 2Z" fill="#FF8F00"/>
<path d="M20 22H12C11.7348 22 11.4804 21.8946 11.2929 21.7071C11.1054 21.5196 11 21.2652 11 21C11 20.7348 11.1054 20.4804 11.2929 20.2929C11.4804 20.1054 11.7348 20 12 20H20C20.2652 20 20.5196 20.1054 20.7071 20.2929C20.8946 20.4804 21 20.7348 21 21C21 21.2652 20.8946 21.5196 20.7071 21.7071C20.5196 21.8946 20.2652 22 20 22Z" fill="#E0E0E0"/>
<path d="M18 25H14C13.7348 25 13.4804 24.8946 13.2929 24.7071C13.1054 24.5196 13 24.2652 13 24C13 23.7348 13.1054 23.4804 13.2929 23.2929C13.4804 23.1054 13.7348 23 14 23H18C18.2652 23 18.5196 23.1054 18.7071 23.2929C18.8946 23.4804 19 23.7348 19 24C19 24.2652 18.8946 24.5196 18.7071 24.7071C18.5196 24.8946 18.2652 25 18 25Z" fill="#E0E0E0"/>
<path d="M22 10.81C21.9695 10.6231 21.8866 10.4487 21.761 10.3071C21.6353 10.1655 21.472 10.0625 21.29 10.01L18.2 9.13003L16.87 6.55003C16.7852 6.38878 16.6579 6.25377 16.5019 6.15959C16.346 6.06541 16.1672 6.01562 15.985 6.01562C15.8028 6.01562 15.6241 6.06541 15.4681 6.15959C15.3121 6.25377 15.1848 6.38878 15.1 6.55003L13.75 9.13003L10.75 10.02C10.5694 10.0717 10.407 10.1733 10.2814 10.313C10.1559 10.4527 10.0722 10.625 10.04 10.81C10.0043 10.9975 10.023 11.1913 10.0939 11.3685C10.1648 11.5457 10.2849 11.6989 10.44 11.81L12.44 13.23L12 15.82C11.9643 16.0075 11.983 16.2013 12.0539 16.3785C12.1248 16.5557 12.2449 16.7089 12.4 16.82C12.5756 16.9427 12.7859 17.0058 13 17C13.1589 17.0016 13.3161 16.9674 13.46 16.9L16 15.58L18.55 16.85C18.7098 16.9245 18.8865 16.9554 19.0621 16.9396C19.2377 16.9238 19.4061 16.8619 19.55 16.76C19.7052 16.6489 19.8253 16.4957 19.8961 16.3185C19.967 16.1413 19.9857 15.9475 19.95 15.76L19.54 13.17L21.54 11.76C21.6976 11.6603 21.8243 11.5185 21.9056 11.3507C21.9868 11.1828 22.0196 10.9955 22 10.81Z" fill="#283593"/>
<path d="M9 2C8.20435 2 7.44129 2.31607 6.87868 2.87868C6.31607 3.44129 6 4.20435 6 5V27C6 27.7956 6.31607 28.5587 6.87868 29.1213C7.44129 29.6839 8.20435 30 9 30H16V2H9Z" fill="#FFA726"/>
<path d="M12 20C11.7348 20 11.4804 20.1054 11.2929 20.2929C11.1054 20.4804 11 20.7348 11 21C11 21.2652 11.1054 21.5196 11.2929 21.7071C11.4804 21.8946 11.7348 22 12 22H16V20H12Z" fill="#FAFAFA"/>
<path d="M14 23C13.7348 23 13.4804 23.1054 13.2929 23.2929C13.1054 23.4804 13 23.7348 13 24C13 24.2652 13.1054 24.5196 13.2929 24.7071C13.4804 24.8946 13.7348 25 14 25H16V23H14Z" fill="#FAFAFA"/>
<path d="M15.1 6.54998L13.75 9.12998L10.75 10.02C10.5694 10.0717 10.407 10.1732 10.2814 10.3129C10.1559 10.4526 10.0722 10.6249 10.04 10.81C10.0043 10.9975 10.023 11.1912 10.0939 11.3684C10.1648 11.5456 10.2849 11.6988 10.44 11.81L12.44 13.23L12 15.82C11.9643 16.0075 11.983 16.2012 12.0539 16.3784C12.1248 16.5556 12.2449 16.7088 12.4 16.82C12.5756 16.9427 12.7859 17.0058 13 17C13.1589 17.0015 13.3161 16.9674 13.46 16.9L16 15.58V6.05998C15.8197 6.05288 15.6409 6.09467 15.4825 6.18094C15.324 6.2672 15.1919 6.39472 15.1 6.54998Z" fill="#3949AB"/>
</svg>

<svg xmlns="http://www.w3.org/2000/svg" width="800" height="800" fill="none" viewBox="0 0 32 32"><path fill="#FF8F00" d="M23 2H9a3 3 0 0 0-3 3v22a3 3 0 0 0 3 3h14a3 3 0 0 0 3-3V5a3 3 0 0 0-3-3"/><path fill="#E0E0E0" d="M20 22h-8a1 1 0 0 1 0-2h8a1 1 0 0 1 0 2m-2 3h-4a1 1 0 0 1 0-2h4a1 1 0 0 1 0 2"/><path fill="#283593" d="M22 10.81a1 1 0 0 0-.71-.8l-3.09-.88-1.33-2.58a1 1 0 0 0-1.77 0l-1.35 2.58-3 .89a1 1 0 0 0-.71.79 1 1 0 0 0 .4 1l2 1.42-.44 2.59a1 1 0 0 0 .4 1 1 1 0 0 0 .6.18 1.1 1.1 0 0 0 .46-.1L16 15.58l2.55 1.27a1 1 0 0 0 1-.09 1 1 0 0 0 .4-1l-.41-2.59 2-1.41a1 1 0 0 0 .46-.95"/><path fill="#FFA726" d="M9 2a3 3 0 0 0-3 3v22a3 3 0 0 0 3 3h7V2z"/><path fill="#FAFAFA" d="M12 20a1 1 0 0 0 0 2h4v-2zm2 3a1 1 0 0 0 0 2h2v-2z"/><path fill="#3949AB" d="m15.1 6.55-1.35 2.58-3 .89a1 1 0 0 0-.71.79 1 1 0 0 0 .4 1l2 1.42-.44 2.59a1 1 0 0 0 .4 1 1 1 0 0 0 .6.18 1.1 1.1 0 0 0 .46-.1L16 15.58V6.06a1 1 0 0 0-.9.49"/></svg>
